src/pos-icons/reminder.svg

<svg height="24" viewBox="0 0 24 24" width="24" xmlns="http://www.w3.org/2000/svg"><path d="m7.25 3c.65 0 1.25.21 1.75.56v-.56a2 2 0 0 1 2-2 2 2 0 0 1 2 2v.57c.5-.35 1.1-.57 1.75-.57a3 3 0 0 1 3 3c0 1.58-1.21 2.87-2.75 3h-2v1h1.24l.48.13 4.59 2.29c.82.31 1.22.92 1.22 1.83l-.03.14v.14l-1 6.75c-.06.47-.28.88-.66 1.22-.37.34-.79.5-1.26.5h-7.58c-.55 0-1-.19-1.42-.59l-6.58-6.57 1.05-1.07c.28-.27.64-.43 1.08-.43h.32l4.55.99v-5.33-1h-2c-1.54-.14-2.75-1.43-2.75-3a3 3 0 0 1 3-3m1.75 3a1.75 1.75 0 0 0 -1.75-1.75 1.75 1.75 0 0 0 -1.75 1.75c0 .88.65 1.61 1.5 1.73v.02h2zm6 1.75v-.01c.85-.12 1.5-.85 1.5-1.74 0-.96-.78-1.74-1.75-1.74s-1.75.78-1.75 1.74v1.75z"/></svg>

<?xml version="1.0" encoding="UTF-8"?><!DOCTYPE svg PUBLIC "-//W3C//DTD SVG 1.1//EN" "http://www.w3.org/Graphics/SVG/1.1/DTD/svg11.dtd"><svg xmlns="http://www.w3.org/2000/svg" xmlns:xlink="http://www.w3.org/1999/xlink" version="1.1" id="mdi-reminder" width="24" height="24" viewBox="0 0 24 24"><path d="M7.25,3C7.9,3 8.5,3.21 9,3.56V3A2,2 0 0,1 11,1A2,2 0 0,1 13,3V3.57C13.5,3.22 14.1,3 14.75,3A3,3 0 0,1 17.75,6C17.75,7.58 16.54,8.87 15,9H13V10H14.24L14.72,10.13L19.31,12.42C20.13,12.73 20.53,13.34 20.53,14.25L20.5,14.39V14.53L19.5,21.28C19.44,21.75 19.22,22.16 18.84,22.5C18.47,22.84 18.05,23 17.58,23H10C9.45,23 9,22.81 8.58,22.41L2,15.84L3.05,14.77C3.33,14.5 3.69,14.34 4.13,14.34H4.45L9,15.33V10L9,9H7V9C5.46,8.86 4.25,7.57 4.25,6A3,3 0 0,1 7.25,3M9,6A1.75,1.75 0 0,0 7.25,4.25A1.75,1.75 0 0,0 5.5,6C5.5,6.88 6.15,7.61 7,7.73V7.75H9V6M15,7.75V7.74C15.85,7.62 16.5,6.89 16.5,6C16.5,5.04 15.72,4.26 14.75,4.26C13.78,4.26 13,5.04 13,6V7.75H15Z" /></svg>
